tools/download-figma-icons/icons/outlined-large/fan.svg

<svg width="64" height="64" viewBox="0 0 64 64" fill="none" xmlns="http://www.w3.org/2000/svg">
<path d="M62.81 14.3299C60.82 9.99994 56.55 6.80994 50.13 4.99994C45 3.53994 40.69 4.08994 37.35 6.61994C32.19 10.5399 30.91 18.1399 30.6 21.7999C29.4447 21.4141 28.461 20.6357 27.82 19.5999C27.1 18.1999 27.33 16.0299 28.52 12.7999C31.2 5.53994 28.45 2.44994 25.66 1.12994C23.8648 0.375436 21.9352 -0.00736162 19.9879 0.00466957C18.0405 0.0167008 16.1159 0.423311 14.33 1.19994C10 3.17994 6.81005 7.44994 5.00005 13.8699C3.54005 18.9999 4.08005 23.3099 6.62005 26.6499C10.54 31.8099 18.14 33.0799 21.8 33.3999C21.4142 34.5553 20.6358 35.5389 19.6 36.1799C18.19 36.8899 16.03 36.6699 12.8 35.4799C5.54005 32.7999 2.44005 35.5499 1.13005 38.3399C0.37566 40.135 -0.00791129 42.064 0.00239976 44.0111C0.0127108 45.9581 0.416691 47.883 1.19005 49.6699C3.19005 54.0499 7.45005 57.1899 13.87 59.0099C15.5819 59.5148 17.3554 59.7807 19.14 59.7999C21.8435 59.8551 24.4874 59.0031 26.65 57.3799C31.81 53.4599 33.09 45.8599 33.4 42.1999C34.5554 42.5858 35.539 43.3642 36.18 44.3999C36.9 45.7999 36.67 47.9699 35.48 51.1999C32.8 58.4599 35.55 61.5499 38.34 62.8699C40.1346 63.6273 42.0645 64.0116 44.0122 63.9996C45.96 63.9876 47.885 63.5794 49.67 62.7999C54.05 60.7999 57.19 56.5499 59.01 50.1299C60.46 44.9899 59.92 40.6899 57.38 37.3499C53.46 32.1899 45.86 30.9299 42.19 30.6099C42.573 29.4501 43.3565 28.4646 44.4 27.8299C45.8 27.1099 47.97 27.3299 51.2 28.5199C58.46 31.1999 61.55 28.4499 62.87 25.6599C63.6244 23.8649 64.008 21.9359 63.9977 19.9888C63.9874 18.0417 63.5834 16.1169 62.81 14.3299ZM32 38.4999C30.7145 38.4999 29.4578 38.1187 28.3888 37.4045C27.3199 36.6903 26.4868 35.6751 25.9948 34.4874C25.5029 33.2997 25.3741 31.9927 25.6249 30.7319C25.8757 29.471 26.4948 28.3128 27.4039 27.4037C28.3129 26.4947 29.4711 25.8756 30.732 25.6248C31.9928 25.374 33.2998 25.5028 34.4875 25.9947C35.6752 26.4867 36.6904 27.3198 37.4046 28.3887C38.1188 29.4577 38.5 30.7144 38.5 31.9999C38.4974 33.723 37.8117 35.3748 36.5933 36.5932C35.3749 37.8116 33.7231 38.4973 32 38.4999ZM9.00005 24.8299C7.07005 22.2899 6.70005 18.8799 7.88005 14.6899C9.44005 9.14994 12 5.52994 15.57 3.92994C16.9594 3.3323 18.4536 3.01658 19.966 3.00113C21.4784 2.98569 22.9788 3.27081 24.38 3.83994C25.27 4.25994 28 5.55994 25.71 11.7599C24.18 15.8899 24.01 18.7599 25.16 20.9699C25.7297 22.0388 26.567 22.9415 27.59 23.5899C26.2921 24.2745 25.1699 25.2499 24.3112 26.4399C23.4526 27.6299 22.8806 29.0023 22.64 30.4499C19.74 30.2599 12.42 29.3199 9.00005 24.8299ZM24.83 54.9999C22.29 56.9399 18.83 57.3199 14.69 56.1299C9.15005 54.5599 5.53005 51.9999 3.93005 48.4299C3.33135 47.0411 3.01423 45.5473 2.99706 44.035C2.9799 42.5227 3.26303 41.022 3.83005 39.6199C4.26005 38.7299 5.55005 35.9999 11.76 38.2899C15.89 39.8199 18.76 39.9899 20.97 38.8399C22.0389 38.2703 22.9416 37.433 23.59 36.4099C24.2687 37.7173 25.2415 38.8493 26.4319 39.7169C27.6223 40.5845 28.9977 41.164 30.45 41.4099C30.25 44.2599 29.32 51.5799 24.83 54.9999ZM55 39.1699C56.94 41.7099 57.31 45.1199 56.13 49.3099C54.57 54.8499 51.98 58.4699 48.44 60.0699C47.0514 60.6703 45.5569 60.9875 44.0441 61.003C42.5313 61.0184 41.0307 60.7318 39.63 60.1599C38.74 59.7399 36.01 58.4399 38.3 52.2399C39.83 48.1099 40 45.2399 38.85 43.0299C38.2804 41.9611 37.4431 41.0583 36.42 40.4099C37.7245 39.7326 38.8546 38.7627 39.722 37.5761C40.5894 36.3896 41.1705 35.0184 41.42 33.5699C44.26 33.7699 51.58 34.6699 55 39.1699ZM60.18 24.3799C59.75 25.2699 58.46 27.9999 52.25 25.7099C48.12 24.1799 45.25 24.0099 43.04 25.1599C41.9712 25.7296 41.0684 26.5669 40.42 27.5899C39.7355 26.292 38.7601 25.1698 37.5701 24.3111C36.3801 23.4524 35.0077 22.8805 33.56 22.6399C33.76 19.7399 34.69 12.4199 39.18 9.00994C41.72 7.07994 45.18 6.69994 49.32 7.87994C54.86 9.43994 58.48 12.0299 60.08 15.5699C60.6772 16.9594 60.9926 18.4536 61.008 19.9659C61.0235 21.4782 60.7386 22.9785 60.17 24.3799H60.18Z" fill="black"/>
</svg>

<svg width="64" height="64" viewBox="0 0 64 64" fill="none" xmlns="http://www.w3.org/2000/svg"><path d="M62.81 14.33C60.82 10 56.55 6.81 50.13 5 45 3.54 40.69 4.09 37.35 6.62c-5.16 3.92-6.44 11.52-6.75 15.18a5.21 5.21 0 0 1-2.78-2.2c-.72-1.4-.49-3.57.7-6.8 2.68-7.26-.07-10.35-2.86-11.67a14.41 14.41 0 0 0-11.33.07C10 3.18 6.81 7.45 5 13.87 3.54 19 4.08 23.31 6.62 26.65c3.92 5.16 11.52 6.43 15.18 6.75a5.21 5.21 0 0 1-2.2 2.78c-1.41.71-3.57.49-6.8-.7-7.26-2.68-10.36.07-11.67 2.86a14.44 14.44 0 0 0 .06 11.33c2 4.38 6.26 7.52 12.68 9.34 1.712.505 3.485.77 5.27.79a12.099 12.099 0 0 0 7.51-2.42c5.16-3.92 6.44-11.52 6.75-15.18a5.21 5.21 0 0 1 2.78 2.2c.72 1.4.49 3.57-.7 6.8-2.68 7.26.07 10.35 2.86 11.67a14.36 14.36 0 0 0 11.33-.07c4.38-2 7.52-6.25 9.34-12.67 1.45-5.14.91-9.44-1.63-12.78-3.92-5.16-11.52-6.42-15.19-6.74a5.14 5.14 0 0 1 2.21-2.78c1.4-.72 3.57-.5 6.8.69 7.26 2.68 10.35-.07 11.67-2.86a14.44 14.44 0 0 0-.06-11.33ZM32 38.5a6.5 6.5 0 1 1 6.5-6.5 6.51 6.51 0 0 1-6.5 6.5ZM9 24.83c-1.93-2.54-2.3-5.95-1.12-10.14C9.44 9.15 12 5.53 15.57 3.93a11.42 11.42 0 0 1 8.81-.09c.89.42 3.62 1.72 1.33 7.92-1.53 4.13-1.7 7-.55 9.21a7 7 0 0 0 2.43 2.62 9.521 9.521 0 0 0-4.95 6.86c-2.9-.19-10.22-1.13-13.64-5.62ZM24.83 55c-2.54 1.94-6 2.32-10.14 1.13-5.54-1.57-9.16-4.13-10.76-7.7a11.43 11.43 0 0 1-.1-8.81c.43-.89 1.72-3.62 7.93-1.33 4.13 1.53 7 1.7 9.21.55a6.998 6.998 0 0 0 2.62-2.43 9.52 9.52 0 0 0 6.86 5c-.2 2.85-1.13 10.17-5.62 13.59ZM55 39.17c1.94 2.54 2.31 5.95 1.13 10.14-1.56 5.54-4.15 9.16-7.69 10.76a11.37 11.37 0 0 1-8.81.09c-.89-.42-3.62-1.72-1.33-7.92 1.53-4.13 1.7-7 .55-9.21a7 7 0 0 0-2.43-2.62 9.53 9.53 0 0 0 5-6.84c2.84.2 10.16 1.1 13.58 5.6Zm5.18-14.79c-.43.89-1.72 3.62-7.93 1.33-4.13-1.53-7-1.7-9.21-.55a7 7 0 0 0-2.62 2.43 9.52 9.52 0 0 0-6.86-4.95c.2-2.9 1.13-10.22 5.62-13.63 2.54-1.93 6-2.31 10.14-1.13 5.54 1.56 9.16 4.15 10.76 7.69a11.427 11.427 0 0 1 .09 8.81h.01Z" fill="currentColor"/></svg>
